X:1
T:Title
%%score { ( 1 3 ) | ( 2 4 ) }
L:1/8
Q:1/4=100
M:4/4
K:Eb
V:1 treble nm="Grand Piano"
V:3 treble 
V:2 bass 
V:4 bass 
V:1
 E2 B,>E G2 E>G | B2 =A>c B4 | [FA]2 [DB]>[FA] G2 F>G | A2 G2 [B,DF]4 | E2 B,>E G2 E>G | %5
w: W.~Stillman~Martin * * * * *|||||
 B2 =A>c B4 | [Ge]2 [Gd]>[Gc] B2 F>B | c2 G>=A [B,B]4 | [Ge]2 [Gd]>[Gc] [B,GB]2 [B,_DG]2 | %9
w: ||||
 [A,DAB]4 [A,DAB]4 | [Ge]2 [Gd]>[Gc] [B,GB]2 [B,_DG]2 | [A,DAB]4 [A,DAB]4 | %12
w: |||
 [FA]2 [_D=E]>[_EG] [=DF]2 [DB]2 | G2 D>F E2 B>B | c2 de GG [DF]2 | E6 z2 |] %16
w: ||||
V:2
 E,2 B,,>E, G,2 E,>[E,B,E] | [E,G,E]2 [E,_G,E]>[E,A,E] [E,=G,E]4 | %2
 [D,B,]2 [B,,B,]>[D,B,] [E,B,E]2 [A,B,D]>[G,B,E] | [F,B,D]2 [E,B,E]2 B,,4 | %4
 E,2 B,,>E, G,2 E,>[E,B,E] | [E,G,E]2 [E,_G,E]>[E,A,E] [E,=G,E]4 | %6
 [C,C]2 [D,=B,]>[E,C] [F,DF]2 [F,_B,D]>[F,B,D] | [F,=A,E]2 [F,B,E]>[F,CE] z2 A2 | %8
 [E,B,]2 [B,,B,]>[B,,B,] E,2 =E,2 | F,2 B,,2 F,2 B,2 | [E,B,]2 [B,,B,]>[B,,B,] E,2 =E,2 | %11
 F,2 B,,2 F,2 B,2 | [B,,B,]2 [B,,B,]>[B,,B,] [B,,B,]2 [B,,B,]2 | %13
 [E,B,E]2 [F,A,B,]>[F,A,B,] [G,B,]2 [E,G,E]>[G,E] | [A,E]2 [A,DE][A,CE] [B,E][B,E] [B,,A,]2 | %15
 [E,G,]6 z2 |] %16
V:3
 x8 | x8 | x8 | x8 | x8 | x8 | x8 | z4 D2 z2 | x8 | x8 | x8 | x8 | x8 | x8 | x8 | x8 |] %16
V:4
 x8 | x8 | x8 | x8 | x8 | x8 | x8 | z4 B,,4 | x8 | x8 | x8 | x8 | x8 | x8 | x8 | x8 |] %16

